public/img/icons/linkedin_grey.svg

<svg width="17" height="17" viewBox="0 0 17 17" fill="none" xmlns="http://www.w3.org/2000/svg">
<path d="M14.0379 9.69268V13.5999C14.0379 13.6959 13.9557 13.7782 13.8597 13.7782H11.8444C11.7484 13.7782 11.6662 13.6959 11.6662 13.5999V9.96688C11.6662 9.0072 11.3234 8.34914 10.4597 8.34914C9.80165 8.34914 9.41778 8.78785 9.23955 9.21285C9.171 9.36365 9.1573 9.58301 9.1573 9.78865V13.5999C9.1573 13.6959 9.07504 13.7782 8.97907 13.7782H6.97746C6.88149 13.7782 6.79923 13.6959 6.79923 13.5999C6.79923 12.6266 6.82665 7.92414 6.79923 6.82736C6.79923 6.73139 6.88149 6.64914 6.97746 6.64914H8.99278C9.08875 6.64914 9.171 6.73139 9.171 6.82736V7.66365C9.171 7.67736 9.1573 7.67736 9.1573 7.69107H9.171V7.66365C9.48633 7.18381 10.0484 6.48462 11.3097 6.48462C12.8726 6.48462 14.0379 7.51284 14.0379 9.69268ZM3.28955 13.7919H5.30488C5.40084 13.7919 5.4831 13.7096 5.4831 13.6137V6.82736C5.4831 6.73139 5.40084 6.64914 5.30488 6.64914H3.28955C3.19359 6.64914 3.11133 6.73139 3.11133 6.82736V13.6137C3.12504 13.7096 3.19359 13.7919 3.28955 13.7919Z" fill="#333033"/>
<path d="M4.23594 5.75801C4.9401 5.75801 5.51094 5.18717 5.51094 4.48301C5.51094 3.77884 4.9401 3.20801 4.23594 3.20801C3.53177 3.20801 2.96094 3.77884 2.96094 4.48301C2.96094 5.18717 3.53177 5.75801 4.23594 5.75801Z" fill="#333033"/>
</svg>

<svg width="17" height="17" fill="none" xmlns="http://www.w3.org/2000/svg"><path d="M14.038 9.693V13.6a.181.181 0 0 1-.178.178h-2.016a.181.181 0 0 1-.178-.178V9.967c0-.96-.343-1.618-1.206-1.618-.658 0-1.042.439-1.22.864-.069.15-.083.37-.083.576v3.81a.182.182 0 0 1-.178.18H6.977a.182.182 0 0 1-.178-.18c0-.972.028-5.675 0-6.772 0-.096.082-.178.178-.178h2.016c.096 0 .178.082.178.178v.837c0 .013-.014.013-.014.027h.014v-.027c.315-.48.877-1.18 2.139-1.18 1.563 0 2.728 1.029 2.728 3.209ZM3.29 13.792h2.015a.182.182 0 0 0 .178-.178V6.827a.181.181 0 0 0-.178-.178H3.29a.181.181 0 0 0-.179.178v6.787c.014.096.083.178.179.178Zm.946-8.034a1.275 1.275 0 1 0 0-2.55 1.275 1.275 0 0 0 0 2.55Z" fill="#333033"/></svg>
